X:1
T:Miss Farquharson of Invercauld
T:Miss Farquharson of Invercauld
T:William Marshall
C:William Marshall
%%score { ( 1 2 ) 3 }
L:1/8
M:4/4
K:F
V:1 treble 
V:2 treble 
V:3 bass 
V:1
 F | [A,C]<FF>G [CA]>GA>F | D<GGA B2 A>c | d>f c<f A>F G<A | C>FE>G F2 FF | %5
 [A,C]<FF>G [CA]>G[CA]>F | D<GGA B2 A>c | d>f c<f A>F G<A | C>FE>G F2 F |] (e | f>)c f<a f>cfa | %11
 f>c f<a g2 (ga) | f<cc>A f>b a<g | f<dc>A G2 (G>g) | f>c c<a fcc(a | f)cfa g2 (ga) | %16
 f>c c<G f>ba>g | f<dc>A G2 G |] %18
V:2
 x | x8 | x8 | F4 C2 C2 | C2 B,2 A,2 A,2 | x8 | x8 | F4 C2 C2 | C2 B,2 A, x2 |] x | x8 | x8 | x8 | %13
 x8 | x8 | x8 | x8 | x7 |] %18
V:3
 z | [Ff]2 [Ff]2 [Ff]2 [Ff]2 | [Bb]2 [Bb][Aa] [Gg]2 [Ff]2 | [Bb]2 [Aa]2 [Ff]2 [Ff]2 | %4
 [Cc]2 [Cc]2 [Ff]2 [Ff]2 | [Ff]2 [Ff]2 [Ff]2 [Ff]2 | [Bb]2 [Bb][Aa] [Gg]2 [Ff]2 | %7
 [Bb]2 [Aa]2 [Ff]2 [Ff]2 | [Cc]2 [Cc]2 [Ff]2 [Ff] |] z | [fac']2 [fac']2 [fac']2 [fac']2 | %11
 [fac']2 [fac']2 [cc']2 [cc']2 | [fac']2 [fac']2 [dd']2 [Bb]2 | [Ff]2 [Ff]2 [Cc]2 [Cc]2 | %14
 [fac']2 [fac']2 [fac']2 [fac']2 | [fac']2 [fac']2 [cc']2 [cc']2 | [fac']2 [fac']2 [dd']2 [Bb]2 | %17
 [Ff]2 [Ff]2 [Cc]2 [Cc] |] %18

